X:84
T:Evans' Jig
M:6/8
L:1/8
Q:120
C:Trad.
R:Jig
K:G
B>cB A>GA | B3 G3 | F>GF E>DE | F>GF E2 D | B>cB A>GA |
B3 G3 | F>GF E>DE | F3- F3 :||: A>BA AFA | G>AG GEG | F>GF FED|
DEF E2 D | A>BA G>AG | F>GF E3 | DEF F2 E | F3-F3 :||
